svg/flat/jcb.svg

<svg height="471" viewBox="0 0 750 471" width="750" xmlns="http://www.w3.org/2000/svg" xmlns:xlink="http://www.w3.org/1999/xlink"><linearGradient id="a" x1=".031608%" x2="99.974315%" y1="49.999857%" y2="49.999857%"><stop offset="0" stop-color="#007b40"/><stop offset="1" stop-color="#55b330"/></linearGradient><linearGradient id="b" x1=".471693%" x2="99.986009%" y1="49.999826%" y2="49.999826%"><stop offset="0" stop-color="#1d2970"/><stop offset="1" stop-color="#006dba"/></linearGradient><linearGradient id="c" x1=".113881%" x2="99.986%" y1="50.000896%" y2="50.000896%"><stop offset="0" stop-color="#6e2b2f"/><stop offset="1" stop-color="#e30138"/></linearGradient><g fill="none"><rect fill="#0e4c96" height="471" rx="40" width="750"/><path d="m617.243183 346.766281c0 41.614606-33.728291 75.359693-75.359693 75.359693h-409.126667v-297.881058c0-41.6262334 33.733028-75.3704593 75.36486-75.3704593l409.1215-.0004307-.000431 297.892255z" fill="#fff"/><path d="m483.858874 242.044797c11.683825.253488 23.437314-.515991 35.07713.400086 11.78724 2.200795 14.627911 20.042991 4.156336 25.887628-7.141594 3.849604-15.632844 1.432185-23.379012 2.113697h-15.854454zm41.832952-32.14431c2.596665 9.164192-6.237923 17.391631-15.065909 16.130079h-26.767043c.184884-8.642125-.367529-18.021593.272179-26.208903 10.723889.301723 21.548523-.615814 32.209341.48019 4.581405 1.149705 8.413541 4.915859 9.351432 9.598634zm64.428586-135.9032616c.49746 17.5012286.071059 35.9264246.213178 53.7829666-.034453 72.596166.072352 145.193982-.054694 217.789111-.468476 27.207289-24.582372 50.844375-51.600147 51.387391-27.045829.111757-54.094452.015934-81.141353.047803v-109.751206c29.469604-.153488 58.958644.307709 88.416125-.231697 13.667199-.858825 28.632506-9.875899 29.269759-24.91422 1.610381-15.101891-12.631152-25.550189-26.152184-27.20169-5.198323-.135142-5.043964-1.514838 0-2.116712 12.891974-2.786489 23.019579-16.133185 19.22569-29.498743-3.236266-14.057855-18.772947-19.498809-31.69642-19.472461-26.351818-.179156-52.709067-.025409-79.06297-.076658.171189-20.488702-.35448-41.000457.285314-61.473746 2.087651-26.7159874 26.805893-48.7478321 53.447049-48.269708 26.283407-.0002868 52.567978.0005741 78.850653-.0004306z" fill="url(#a)"/><path d="m159.740429 125.040498c.67326-27.1638388 24.88819-50.6114681 51.874368-51.0079582 26.944696-.0825712 53.891407-.0116279 80.836874-.0353144-.074031 90.8852626.148234 181.7764466-.11137 272.6579966-1.038003 26.83358-24.989753 49.833439-51.678945 50.30707-26.996341.098665-53.995081.013782-80.992344.042205v-113.453622c26.222611 6.194616 53.722126 8.831643 80.473394 4.721367 15.992103-2.574874 33.487529-10.424216 38.901855-27.014675 3.985861-14.1913 1.741462-29.125965 2.333766-43.691102v-33.824924h-46.296781c-.20814 22.370604.426012 44.780906-.3351 67.125566-1.248296 13.734107-14.845999 22.459889-27.799718 21.994694-16.066681.168734-47.898878-11.640005-47.898878-11.640005-.080058-41.916996.466764-94.407411.692879-136.181298z" fill="url(#b)"/><path d="m309.719995 197.390136c-2.434207.517244-.490854-8.300677-1.113697-11.646172.165935-21.150327-.346253-42.323013.28342-63.458137 2.082823-26.8287443 26.991544-48.9157165 53.73903-48.288171h78.765812c-.073902 90.88469.147933 181.775284-.111154 272.656278-1.038994 26.834093-24.992062 49.833168-51.681319 50.308358-26.997482.099699-53.99738.014212-80.995789.042636v-124.297304c18.440112 15.128222 43.49944 17.484624 66.471655 17.52586 17.317057-.006029 34.533908-2.675619 51.35019-6.67055v-22.772637c-18.953485 9.446312-41.233335 15.445518-62.243398 10.017669-14.655694-3.650599-25.293855-17.811283-25.056232-32.935762-1.698503-15.72852 7.524118-32.335319 22.981724-37.011349 19.190686-6.00831 40.10755-1.412401 58.096107 6.39794 3.854182 2.018155 7.764316 4.521547 6.221799-1.920751v-17.899686c-30.084562-7.157407-62.101499-9.791953-92.328705-2.004739-8.748245 2.468155-17.271248 6.211028-24.379443 11.956517z" fill="url(#c)"/></g></svg>

<svg width="750" height="471" viewBox="0 0 750 471" version="1.1" xmlns="http://www.w3.org/2000/svg" xmlns:xlink="http://www.w3.org/1999/xlink">
    <!-- Generator: Sketch 48.2 (47327) - http://www.bohemiancoding.com/sketch -->
    <desc>Created with Sketch.</desc>
    <defs>
        <linearGradient x1="0.031607858%" y1="49.9998574%" x2="99.9743153%" y2="49.9998574%" id="linearGradient-1">
            <stop stop-color="#007B40" offset="0%"></stop>
            <stop stop-color="#55B330" offset="100%"></stop>
        </linearGradient>
        <linearGradient x1="0.471693172%" y1="49.999826%" x2="99.9860086%" y2="49.999826%" id="linearGradient-2">
            <stop stop-color="#1D2970" offset="0%"></stop>
            <stop stop-color="#006DBA" offset="100%"></stop>
        </linearGradient>
        <linearGradient x1="0.113880772%" y1="50.0008964%" x2="99.9860003%" y2="50.0008964%" id="linearGradient-3">
            <stop stop-color="#6E2B2F" offset="0%"></stop>
            <stop stop-color="#E30138" offset="100%"></stop>
        </linearGradient>
    </defs>
    <g id="Page-1" stroke="none" stroke-width="1" fill="none" fill-rule="evenodd">
        <g id="jcb" fill-rule="nonzero">
            <rect id="Rectangle-1" fill="#0E4C96" x="0" y="0" width="750" height="471" rx="40"></rect>
            <path d="M617.243183,346.766281 C617.243183,388.380887 583.514892,422.125974 541.88349,422.125974 L132.756823,422.125974 L132.756823,124.244916 C132.756823,82.6186826 166.489851,48.8744567 208.121683,48.8744567 L617.243183,48.874026 L617.242752,346.766281 L617.243183,346.766281 Z" id="path3494" fill="#FFFFFF"></path>
            <path d="M483.858874,242.044797 C495.542699,242.298285 507.296188,241.528806 518.936004,242.444883 C530.723244,244.645678 533.563915,262.487874 523.09234,268.332511 C515.950746,272.182115 507.459496,269.764696 499.713328,270.446208 L483.858874,270.446208 L483.858874,242.044797 Z M525.691826,209.900487 C528.288491,219.064679 519.453903,227.292118 510.625917,226.030566 L483.858874,226.030566 C484.043758,217.388441 483.491345,208.008973 484.131053,199.821663 C494.854942,200.123386 505.679576,199.205849 516.340394,200.301853 C520.921799,201.451558 524.753935,205.217712 525.691826,209.900487 Z M590.120412,73.9972254 C590.617872,91.498454 590.191471,109.92365 590.33359,127.780192 C590.299137,200.376358 590.405942,272.974174 590.278896,345.569303 C589.81042,372.776592 565.696524,396.413678 538.678749,396.956694 C511.63292,397.068451 484.584297,396.972628 457.537396,397.004497 L457.537396,287.253291 C487.007,287.099803 516.49604,287.561 545.953521,287.021594 C559.62072,286.162769 574.586027,277.145695 575.22328,262.107374 C576.833661,247.005483 562.592128,236.557185 549.071096,234.905684 C543.872773,234.770542 544.027132,233.390846 549.071096,232.788972 C561.96307,230.002483 572.090675,216.655787 568.296786,203.290229 C565.06052,189.232374 549.523839,183.79142 536.600366,183.817768 C510.248548,183.638612 483.891299,183.792359 457.537396,183.74111 C457.708585,163.252408 457.182916,142.740653 457.82271,122.267364 C459.910361,95.5513766 484.628603,73.5195319 511.269759,73.997656 C537.553166,73.9973692 563.837737,73.9982301 590.120412,73.9972254 Z" id="path3496" fill="url(#linearGradient-1)"></path>
            <path d="M159.740429,125.040498 C160.413689,97.8766592 184.628619,74.4290299 211.614797,74.0325398 C238.559493,73.9499686 265.506204,74.0209119 292.451671,73.9972254 C292.37764,164.882488 292.599905,255.773672 292.340301,346.655222 C291.302298,373.488802 267.350548,396.488661 240.661356,396.962292 C213.665015,397.060957 186.666275,396.976074 159.669012,397.004497 L159.669012,283.550875 C185.891623,289.745491 213.391138,292.382518 240.142406,288.272242 C256.134509,285.697368 273.629935,277.848026 279.044261,261.257567 C283.030122,247.066267 280.785723,232.131602 281.378027,217.566465 L281.378027,183.741541 L235.081246,183.741541 C234.873106,206.112145 235.507258,228.522447 234.746146,250.867107 C233.49785,264.601214 219.900147,273.326996 206.946428,272.861801 C190.879747,273.030535 159.04755,261.221796 159.04755,261.221796 C158.967492,219.3048 159.514314,166.814385 159.740429,125.040498 Z" id="path3498" fill="url(#linearGradient-2)"></path>
            <path d="M309.719995,197.390136 C307.285788,197.90738 309.229141,189.089459 308.606298,185.743964 C308.772233,164.593637 308.260045,143.420951 308.889718,122.285827 C310.972541,95.4570827 335.881262,73.3701105 362.628748,73.997656 L441.39456,73.997656 C441.320658,164.882346 441.542493,255.77294 441.283406,346.653934 C440.244412,373.488027 416.291344,396.487102 389.602087,396.962292 C362.604605,397.061991 335.604707,396.976504 308.606298,397.004928 L308.606298,272.707624 C327.04641,287.835846 352.105738,290.192248 375.077953,290.233484 C392.39501,290.227455 409.611861,287.557865 426.428143,283.562934 L426.428143,260.790297 C407.474658,270.236609 385.194808,276.235815 364.184745,270.807966 C349.529051,267.157367 338.89089,252.996683 339.128513,237.872204 C337.43001,222.143684 346.652631,205.536885 362.110237,200.860855 C381.300923,194.852545 402.217787,199.448454 420.206344,207.258795 C424.060526,209.27695 427.97066,211.780342 426.428143,205.338044 L426.428143,187.438358 C396.343581,180.280951 364.326644,177.646405 334.099438,185.433619 C325.351193,187.901774 316.82819,191.644647 309.719995,197.390136 Z" id="path3500" fill="url(#linearGradient-3)"></path>
        </g>
    </g>
</svg>
